24x24/apps/distributor-logo-steamos.svg

<svg height="24" width="24" xmlns="http://www.w3.org/2000/svg"><path d="m10.464 16.512 4.216-8.967 6.403 4.559-7.553 6.978z" opacity=".2"/><circle cx="12.5" cy="17" opacity=".2" r="3.5"/><circle cx="4.5" cy="12" opacity=".2" r="3.5"/><path d="m10.464 16.012 4.216-8.967 6.403 4.559-7.553 6.978z" fill="#2d1c84"/><circle cx="18" cy="9.5" opacity=".2" r="5"/><circle cx="18" cy="9" fill="#9d2acd" r="5"/><circle cx="12.5" cy="16.5" fill="#9d2acd" r="3.5"/><path d="m12.5 13a3.5 3.5 0 0 0 -3.5 3.5 3.5 3.5 0 0 0 .012.275 3.5 3.5 0 0 1 3.488-3.275 3.5 3.5 0 0 1 3.488 3.225 3.5 3.5 0 0 0 .012-.225 3.5 3.5 0 0 0 -3.5-3.5z" fill="#f4f4f7" opacity=".2"/><circle cx="4.5" cy="11.5" fill="#9d2acd" r="3.5"/><path d="m4.5 12 8 5" fill="none" opacity=".2" stroke="#000" stroke-linecap="round" stroke-width="3"/><path d="m4.5 11.5 8 5" fill="none" stroke="#e5acf3" stroke-linecap="round" stroke-width="3"/><circle cx="18" cy="9.5" opacity=".2" r="3"/><circle cx="18" cy="9" fill="#e5acf3" r="3"/><g fill="#f4f4f7"><path d="m18 4a5 5 0 0 0 -5 5 5 5 0 0 0 .01.303 5 5 0 0 1 4.99-4.803 5 5 0 0 1 4.99 4.697 5 5 0 0 0 .01-.197 5 5 0 0 0 -5-5zm-13.5 4a3.5 3.5 0 0 0 -3.5 3.5 3.5 3.5 0 0 0 .012.275 3.5 3.5 0 0 1 3.488-3.275 3.5 3.5 0 0 1 3.488 3.225 3.5 3.5 0 0 0 .012-.225 3.5 3.5 0 0 0 -3.5-3.5z" opacity=".2"/><path d="m18 6a3 3 0 0 0 -3 3 3 3 0 0 0 .014.256 3 3 0 0 1 2.986-2.756 3 3 0 0 1 2.986 2.744 3 3 0 0 0 .014-.244 3 3 0 0 0 -3-3zm-13.559 3.988a1.5 1.5 0 0 0 -1.437 1.748 1.5 1.5 0 0 1 1.437-1.248 1.5 1.5 0 0 1 .854.24l8 5a1.5 1.5 0 0 1 .719 1.045 1.5 1.5 0 0 0 -.72-1.544l-8-5a1.5 1.5 0 0 0 -.853-.24z" opacity=".2"/></g></svg>

<svg width="24" height="24" xmlns="http://www.w3.org/2000/svg"><path d="m10.464 16.512 4.216-8.967 6.403 4.559-7.553 6.978z" style="opacity:.2"/><circle cx="12.5" cy="17" r="3.5" style="opacity:.2"/><circle cx="4.5" cy="12" r="3.5" style="opacity:.2"/><path d="m10.464 16.012 4.216-8.967 6.403 4.559-7.553 6.978z" style="fill:#2d1c84"/><circle cx="18" cy="9.5" r="5" style="opacity:.2"/><circle cx="18" cy="9" r="5" style="fill:#9d2acd"/><circle cx="12.5" cy="16.5" r="3.5" style="fill:#9d2acd"/><path d="M12.5 13A3.5 3.5 0 0 0 9 16.5a3.5 3.5 0 0 0 .012.275A3.5 3.5 0 0 1 12.5 13.5a3.5 3.5 0 0 1 3.488 3.225A3.5 3.5 0 0 0 16 16.5a3.5 3.5 0 0 0-3.5-3.5z" style="fill:#f4f4f7;opacity:.2"/><circle cx="4.5" cy="11.5" r="3.5" style="fill:#9d2acd"/><path d="m4.5 12 8 5" style="fill:none;opacity:.2;stroke-linecap:round;stroke-width:3;stroke:#000"/><path d="m4.5 11.5 8 5" style="fill:none;stroke-linecap:round;stroke-width:3;stroke:#e5acf3"/><circle cx="18" cy="9.5" r="3" style="opacity:.2"/><circle cx="18" cy="9" r="3" style="fill:#e5acf3"/><path d="M18 4a5 5 0 0 0-5 5 5 5 0 0 0 .01.303A5 5 0 0 1 18 4.5a5 5 0 0 1 4.99 4.697A5 5 0 0 0 23 9a5 5 0 0 0-5-5zM4.5 8A3.5 3.5 0 0 0 1 11.5a3.5 3.5 0 0 0 .012.275A3.5 3.5 0 0 1 4.5 8.5a3.5 3.5 0 0 1 3.488 3.225A3.5 3.5 0 0 0 8 11.5 3.5 3.5 0 0 0 4.5 8z" style="fill:#f4f4f7;opacity:.2"/><path d="M18 6a3 3 0 0 0-3 3 3 3 0 0 0 .014.256A3 3 0 0 1 18 6.5a3 3 0 0 1 2.986 2.744A3 3 0 0 0 21 9a3 3 0 0 0-3-3zM4.441 9.988a1.5 1.5 0 0 0-1.437 1.748 1.5 1.5 0 0 1 1.437-1.248 1.5 1.5 0 0 1 .854.24l8 5a1.5 1.5 0 0 1 .719 1.045 1.5 1.5 0 0 0-.72-1.544l-8-5a1.5 1.5 0 0 0-.853-.24z" style="fill:#f4f4f7;opacity:.2"/></svg>
